X:360
T: Over Young to Marry Yet
N: O'Farrell's Pocket Companion v.4 (Sky ed. p.154)
N: "Scotch"
M: 4/4
L: 1/8
Q: 250
R: hornpipe
K: G
d| BdGG BABc| BdGB cAAc| BdGG BABd| efge dBB :|
d| g2ge abaf| gage dBB>d| g2ge abaf| b2ba gede|
g2ge abaf| gage dBBA| GEDE G>ABd|efge dBB ||
